X: 39918
T: Thomas McElvogue's
R: reel
M: 4/4
K: Eminor
DEE/E/E B3 B|cBAc B4|BEE/E/E BcBA|cBAG BAGF|
DEE/E/E B3 B|cBAc B4|BEE/E/E ABcB|AGFG FE E2:|
|:B,EE/E/E ^DFF/F/F|EGG/G/G FGAc|B2 B/c/B/A/ BcAc|cBAc BAGF|
B,EE/E/E ^DFF/F/F|EGG/G/G FGAc|B4 ABcB|AGFG FE E2:|

